outputs/icons/file/downloading_sharp.svg

<svg width="1200" height="1200" viewBox="0 0 1200 1200" fill="none" xmlns="http://www.w3.org/2000/svg"><g clip-path="url(#clip0_124_960)"><path d="M916 212.99C842 152.49 750.5 112.49 650 102.49V203.491C723 212.49 789.5 241.49 845 284.49L916 212.99ZM996.5 549.99H1097.5C1087.5 449.49 1047.5 357.99 987 283.99L915.5 354.99C958.5 410.49 987.5 476.99 996.5 549.99ZM915.5 844.99L987 916.49C1047.5 842.49 1087.5 750.49 1097.5 650.49H996.5C987.5 722.99 958.5 789.49 915.5 844.99ZM650 996.49V1097.49C750.5 1087.49 842 1047.49 916 986.99L844.5 915.49C789.5 958.49 723 987.49 650 996.49ZM650 599.99V349.99H550V599.99H350L600 849.99L850 599.99H650ZM550 996.49V1097.49C297.5 1072.49 100 859.49 100 599.99C100 340.49 297.5 127.49 550 102.49V203.491C352.5 227.99 200 395.99 200 599.99C200 803.99 352.5 971.99 550 996.49Z" fill="black"/></g><defs><clipPath id="clip0_124_960"><path width="24" fill="white" d="M0 0H1200V1200H0V0z"/></clipPath></defs></svg>

<svg xmlns="http://www.w3.org/2000/svg" width="1200" height="1200" fill="none"><g clip-path="url(#a)"><path fill="#000" d="M916 212.99c-74-60.5-165.5-100.5-266-110.5v101.001c73 8.999 139.5 37.999 195 80.999zm80.5 337h101c-10-100.5-50-192-110.5-266l-71.5 71c43 55.5 72 122 81 195m-81 295 71.5 71.5c60.5-74 100.5-166 110.5-266h-101c-9 72.5-38 139-81 194.5M650 996.49v101c100.5-10 192-50 266-110.5l-71.5-71.5c-55 43-121.5 72-194.5 81m0-396.5v-250H550v250H350l250 250 250-250zm-100 396.5v101c-252.5-25-450-238-450-497.5s197.5-472.5 450-497.5v101.001C352.5 227.99 200 395.99 200 599.99s152.5 372 350 396.5"/></g><defs><clipPath id="a"><path fill="#fff" d="M0 0h1200v1200H0z"/></clipPath></defs></svg>
